X:16
T:Danse
Z:Transcrit et/ou corrigé par B@D - 2006-10-18
Z:Pour toute observation mailto:-@-
M:3/4
L:1/4
K:F
P:I
c2c | c2 B/LA/ | B3 | B2z | d2d | d2c/LB/ | c3 | c2z |1
F2G | B2B | cB/LA/B | B2z :|2 F2G | B2A | G2A | G2z ||
P:II
f2e | d2c | d3 | d2z | d2G | G2A | F3 | F2z |1
F2G | B2B | cB/LA/B | B2z :|2 F2G | B2A | G2A | G2z ||
P:III
B2c | d2d | c2d | G2z | B2c | B/LA/BG | A3 | A2z |1
F2G | B2B | cB/LA/B | B2z :|2 F2G | B2A | G2A | G2z ||




%%header "$P0	 $IR 	$P1"
%%footer $D - Éditions Galouvielle - 2009 - À usage librement privé dans le cadre familial

